X: 1470
T: Anderson's
R: reel
M: 4/4
K: Dmajor
ABdf efdB|AF ~F2 EFDF|ABdf efdf|afeg fedB|
ABdf efdB|AF ~F2 EFDF|ABdf efdf|afeg fedf||
a2 fa bafa|a2 fd edBd|a2 fa bafa|afef defg|
a2 fa bafa|a2 fd edBd|A2 FB ABdf|afeg fedB||

